build/Karasa-Jaga/scalable/devices/media-zip-symbolic.svg

<svg height="16" viewBox="0 0 16 16" width="16" xmlns="http://www.w3.org/2000/svg"><path d="m3.8535156 1.234375-2.1816406 1.0078125v11.8398435l.3828125.480469h1.7988281 8.2929684 1.798828l.382813-.480469v-11.8398435l-2.181641-1.0078125zm-.8535156 1.765625h1v3h8v-3h1v10h-10z" fill="#bebebe"/></svg>

<?xml version="1.0" encoding="UTF-8" standalone="no"?>
<!-- Created with Inkscape (http://www.inkscape.org/) -->

<svg
   xmlns:dc="http://purl.org/dc/elements/1.1/"
   xmlns:cc="http://creativecommons.org/ns#"
   xmlns:rdf="http://www.w3.org/1999/02/22-rdf-syntax-ns#"
   xmlns:svg="http://www.w3.org/2000/svg"
   xmlns="http://www.w3.org/2000/svg"
   xmlns:sodipodi="http://sodipodi.sourceforge.net/DTD/sodipodi-0.dtd"
   xmlns:inkscape="http://www.inkscape.org/namespaces/inkscape"
   version="1.1"
   id="svg2"
   width="16"
   height="16"
   viewBox="0 0 16 16"
   sodipodi:docname="media-zip-symbolic.svg"
   inkscape:version="0.92.2 (unknown)">
  <metadata
     id="metadata8">
    <rdf:RDF>
      <cc:Work
         rdf:about="">
        <dc:format>image/svg+xml</dc:format>
        <dc:type
           rdf:resource="http://purl.org/dc/dcmitype/StillImage" />
        <dc:title></dc:title>
      </cc:Work>
    </rdf:RDF>
  </metadata>
  <defs
     id="defs6">
    <filter
       id="filter7554"
       color-interpolation-filters="sRGB">
      <feBlend
         mode="darken"
         in2="BackgroundImage"
         id="feBlend7556" />
    </filter>
    <filter
       id="filter7554-7"
       color-interpolation-filters="sRGB">
      <feBlend
         mode="darken"
         in2="BackgroundImage"
         id="feBlend7556-6" />
    </filter>
  </defs>
  <sodipodi:namedview
     pagecolor="#ffffff"
     bordercolor="#666666"
     borderopacity="1"
     objecttolerance="10"
     gridtolerance="10"
     guidetolerance="10"
     inkscape:pageopacity="0"
     inkscape:pageshadow="2"
     inkscape:window-width="1317"
     inkscape:window-height="716"
     id="namedview4"
     showgrid="false"
     inkscape:zoom="7.375"
     inkscape:cx="1.5916883"
     inkscape:cy="14.135788"
     inkscape:window-x="49"
     inkscape:window-y="27"
     inkscape:window-maximized="1"
     inkscape:current-layer="svg2"
     showguides="false" />
  <g
     id="layer9"
     label="status"
     inkscape:label="status"
     style="display:inline;fill:#bebebe;fill-opacity:1"
     transform="translate(-513.0002,231)" />
  <path
     style="fill:#bebebe;fill-opacity:1;stroke:none"
     d="M 3.8535156 1.234375 L 1.671875 2.2421875 L 1.671875 14.082031 L 2.0546875 14.5625 L 3.8535156 14.5625 L 12.146484 14.5625 L 13.945312 14.5625 L 14.328125 14.082031 L 14.328125 2.2421875 L 12.146484 1.234375 L 3.8535156 1.234375 z M 3 3 L 4 3 L 4 6 L 12 6 L 12 3 L 13 3 L 13 13 L 3 13 L 3 3 z "
     id="path7007" />
  <g
     id="layer13"
     inkscape:label="places"
     style="display:inline;fill:#bebebe;fill-opacity:1"
     transform="translate(-513.0002,231)" />
  <g
     style="fill:#bebebe;fill-opacity:1"
     id="layer14"
     inkscape:label="mimes"
     transform="translate(-513.0002,231)" />
  <g
     id="layer15"
     inkscape:label="emblems"
     style="display:inline;fill:#bebebe;fill-opacity:1"
     transform="translate(-513.0002,231)" />
  <g
     id="g71291"
     inkscape:label="emotes"
     style="display:inline;fill:#bebebe;fill-opacity:1"
     transform="translate(-513.0002,231)" />
  <g
     id="layer12"
     inkscape:label="actions"
     style="display:inline;fill:#bebebe;fill-opacity:1"
     transform="translate(-513.0002,231)" />
</svg>
